X: 26561
T: Mick Carr's
R: barndance
M: 4/4
K: Gmajor
|:(3ABc|d>ed>c B<GB>c|d>ed>B g2 A>B|c>dc<B A>^GA>B|c>Bc<A d2 (3ABc|
d>ed>c B<G (3ABc|d>ed<B g2 f>g|(3efg f>e (3ded (3cBA|(3GAG F2 G2:|
|:(3GFE|(3DED G>B d2 d2|e>dc<B c2- c2|D>DF<A c2 d>e|f>ed>c B2- B2|
D<DG>B d2 c>d|e>dc>B c2- c>A|D>EF>G A2 (3cBA|G2 (3AFG G2:|

